icons/running_fill.svg

<svg width="48" height="48" viewBox="0 0 48 48" fill="none" xmlns="http://www.w3.org/2000/svg">
<path d="M30.5 13C32.9853 13 35 10.9853 35 8.5C35 6.01472 32.9853 4 30.5 4C28.0147 4 26 6.01472 26 8.5C26 10.9853 28.0147 13 30.5 13Z" fill="black"/>
<path d="M21.4601 17.2823C20.2126 17.5915 19.3619 18.0579 18.6751 18.6362C17.6443 19.5043 16.8134 20.7569 15.6892 22.7241C15.1412 23.6831 13.9195 24.0163 12.9605 23.4683C12.0014 22.9202 11.6683 21.6985 12.2163 20.7395C13.3348 18.7822 14.4662 16.9512 16.0985 15.5766C17.8028 14.1414 19.8882 13.3288 22.7024 13.016C23.8781 12.8854 25.1713 12.9117 26.3846 13.4532C27.6583 14.0218 28.5876 15.0406 29.2217 16.4023C30.0755 18.2358 30.7107 19.3274 31.2195 19.9595C31.4641 20.2633 31.6352 20.4042 31.7318 20.4673C31.8089 20.5176 31.8413 20.5214 31.8538 20.5228L31.8552 20.523C31.9423 20.5336 32.2236 20.5226 33.0524 20.1563C33.413 19.9969 33.8074 19.8042 34.289 19.5689L34.4042 19.5126C34.9254 19.2581 35.522 18.9686 36.1882 18.6724C37.1975 18.2238 38.3795 18.6784 38.8281 19.6878C39.2767 20.6971 38.8222 21.879 37.8128 22.3277C37.2175 22.5922 36.6766 22.8544 36.1596 23.1069L36.0289 23.1708C35.5679 23.3961 35.1041 23.6228 34.6695 23.8149C33.7688 24.213 32.6181 24.6454 31.3717 24.4937C30.0562 24.3335 29.0417 23.5914 28.2073 22.5941L25.4735 27.8666L29.2532 32.7853C29.4787 33.0786 29.6183 33.4288 29.6566 33.7968L30.4893 41.793C30.6037 42.8916 29.8058 43.875 28.7072 43.9893C27.6085 44.1038 26.6252 43.3059 26.5108 42.2072L25.7368 34.7739L23.441 31.7864L23.4218 31.8235L23.3373 31.6515L19.0949 26.1307C18.6709 25.579 18.5641 24.8467 18.8129 24.197L21.4601 17.2823Z" fill="black"/>
<path d="M18.4321 29.0071L16.9603 32.9676L11.1591 32.5063C10.058 32.4187 9.09445 33.2404 9.00689 34.3414C8.91932 35.4425 9.74095 36.4061 10.842 36.4937L18.15 37.0748C19.0415 37.1457 19.8717 36.6161 20.1833 35.7778L21.3084 32.7501L18.4321 29.0071Z" fill="black"/>
</svg>

<svg
  xmlns="http://www.w3.org/2000/svg"
  width="24"
  height="24"
  viewBox="0 0 24 24"
  fill="none"
  stroke="currentColor"
  stroke-width="2"
  stroke-linecap="round"
  stroke-linejoin="round"
>
  <path d="M30.5 13a4.5 4.5 0 1 0 0-9 4.5 4.5 0 0 0 0 9" />
  <path d="M21.46 17.282c-1.247.31-2.098.776-2.785 1.354-1.03.868-1.862 2.12-2.986 4.088a2 2 0 1 1-3.473-1.985c1.119-1.957 2.25-3.788 3.883-5.162 1.704-1.436 3.79-2.248 6.603-2.561 1.176-.13 2.47-.104 3.683.437 1.273.569 2.203 1.588 2.837 2.95.854 1.833 1.489 2.924 1.997 3.557.245.303.416.444.513.507.077.05.11.054.122.056h.001c.087.01.369 0 1.197-.367.361-.16.755-.352 1.237-.587l.115-.056a54 54 0 0 1 1.784-.84 2 2 0 0 1 1.625 3.655 49 49 0 0 0-1.653.779l-.131.064c-.461.225-.925.452-1.36.644-.9.398-2.05.83-3.297.679-1.316-.16-2.33-.903-3.165-1.9l-2.733 5.273 3.78 4.918c.225.294.364.644.403 1.012l.832 7.996a2 2 0 1 1-3.978.414l-.774-7.433-2.296-2.988-.02.037-.084-.172-4.242-5.52a2 2 0 0 1-.282-1.934z" />
  <path d="m18.432 29.007-1.472 3.96-5.8-.46a2 2 0 1 0-.318 3.987l7.308.58a2 2 0 0 0 2.033-1.296l1.125-3.028z" />
</svg>
